img/ui/icons/Driver.svg

<svg width="25" height="25" viewBox="0 0 25 25" fill="none" xmlns="http://www.w3.org/2000/svg">
<path d="M12.1465 14.75C11.924 14.75 11.7065 14.684 11.5215 14.5604C11.3365 14.4368 11.1923 14.2611 11.1071 14.0555C11.022 13.85 10.9997 13.6238 11.0431 13.4055C11.0865 13.1873 11.1937 12.9868 11.351 12.8295C11.5083 12.6722 11.7088 12.565 11.927 12.5216C12.1452 12.4782 12.3714 12.5005 12.577 12.5856C12.7826 12.6708 12.9583 12.815 13.0819 13C13.2055 13.185 13.2715 13.4025 13.2715 13.625C13.2715 13.9234 13.153 14.2095 12.942 14.4205C12.731 14.6315 12.4449 14.75 12.1465 14.75ZM21.8965 12.5C21.8965 14.4284 21.3247 16.3134 20.2533 17.9168C19.182 19.5202 17.6592 20.7699 15.8777 21.5078C14.0961 22.2458 12.1357 22.4389 10.2444 22.0627C8.35304 21.6865 6.61576 20.7579 5.2522 19.3943C3.88864 18.0307 2.96004 16.2934 2.58383 14.4021C2.20763 12.5108 2.40071 10.5504 3.13866 8.76884C3.87662 6.98726 5.1263 5.46451 6.72968 4.39317C8.33306 3.32183 10.2181 2.75 12.1465 2.75C14.7315 2.75273 17.2099 3.78084 19.0378 5.60872C20.8657 7.43661 21.8938 9.91498 21.8965 12.5ZM3.89649 12.5V12.5309C6.20004 10.5742 9.12407 9.5 12.1465 9.5C15.1689 9.5 18.0929 10.5742 20.3965 12.5309V12.5C20.3965 10.312 19.5273 8.21354 17.9801 6.66637C16.4329 5.11919 14.3345 4.25 12.1465 4.25C9.95845 4.25 7.86003 5.11919 6.31286 6.66637C4.76568 8.21354 3.89649 10.312 3.89649 12.5ZM10.2246 20.5231L8.62618 16.25H4.7993C5.34292 17.3107 6.10905 18.2415 7.04536 18.979C7.98167 19.7164 9.06611 20.2431 10.2246 20.5231ZM12.1465 20.75H12.3799L14.2615 15.7278C14.3695 15.442 14.5618 15.1958 14.813 15.0218C15.0641 14.8479 15.3622 14.7544 15.6677 14.7537H20.0852C20.1209 14.6309 20.1527 14.5062 20.179 14.3787C19.1316 13.3101 17.8815 12.4611 16.5019 11.8816C15.1223 11.302 13.641 11.0035 12.1446 11.0035C10.6482 11.0035 9.16691 11.302 7.78733 11.8816C6.40775 12.4611 5.15766 13.3101 4.11024 14.3787C4.1393 14.5044 4.17118 14.6291 4.20399 14.7537H8.62618C8.93177 14.7546 9.22991 14.8483 9.48105 15.0224C9.73219 15.1965 9.92448 15.4429 10.0324 15.7288L11.9074 20.75H12.1465ZM19.4937 16.25H15.6668L14.0646 20.5241C15.2239 20.2445 16.3092 19.7179 17.2462 18.9803C18.1832 18.2426 18.9498 17.3113 19.4937 16.25Z" fill="currentColor"/>
</svg>

<svg width="25" height="25" fill="none" xmlns="http://www.w3.org/2000/svg"><path d="M12.146 14.75a1.125 1.125 0 1 1 0-2.25 1.125 1.125 0 0 1 0 2.25Zm9.75-2.25a9.75 9.75 0 1 1-9.75-9.75 9.76 9.76 0 0 1 9.75 9.75Zm-18 0v.03a12.743 12.743 0 0 1 16.5 0v-.03a8.25 8.25 0 0 0-16.5 0Zm6.329 8.023L8.626 16.25H4.8a8.283 8.283 0 0 0 5.426 4.273Zm1.921.227h.234l1.881-5.022a1.507 1.507 0 0 1 1.407-.974h4.417c.036-.123.068-.248.094-.375a11.25 11.25 0 0 0-16.069 0c.03.125.061.25.094.375h4.422a1.508 1.508 0 0 1 1.406.975l1.875 5.021h.24Zm7.348-4.5h-3.827l-1.602 4.274a8.284 8.284 0 0 0 5.429-4.274Z" fill="currentColor"/></svg>
